X:17778
T:Trip to LONDON, A. GS.050
T:Margaret's Tune,aka. GS.050
M:6/8
L:1/8
Q:120
S:George Spencer m/s, Leeds,1831
R:Jig
O:England
A:Leeds
N:  Mr. Spencer was having trouble with his pen again  but it is clear
N:from the context what is intended.. Cherri
H:1831
Z:vmp.Cherri Graebe
K:BB major
F | BcB bfd | c2c c2 d | ege dfd | c2 B AGF | BcB bfd |!
 c2c c2 d | dcB FGA | B3 B,2:||:
z|fBB gBB | fBB eBB |! dcB GAB | cdc AGF | fBB gBB | aff b2g | fed cBA |
 B
3 B,2:||


